X: 1
T: Nissen og rotterne
O: Denmark, Germany
R: shottish
Z: John Chambers <jc@trillian.mit.edu>
M: 4/4
L: 1/8
K: F
|: C \
| "F"F>E F>G A>G A>B | d2 c2 c3 A \
|1,3 "Bb"c2 B2 "C7"B3 G | "F"B2 A2 A3 \
:|2,4 "Bb"c2 B2 "C7"B>A B>E | "F"F2 A2 F3 ||
K: Bb
|: F \
| "Bb"d>c B>A "F7"c>B A>G | "Bb"F4 D3 F \
|1,3 "Cm"E4 C3 G | "F7"F4 "Bb"D3 \
:|2,4 "Cm"G2 c2 "F7"B>A G>A | "B"B2 d2 B2 z2 |]
